X: 27930
T: Mountain Streams Where The Moorcocks Crow, The
R: hornpipe
M: 4/4
K: Bminor
|:dc|BcBA F2 EB,|DEFA AF ed|BAFD EAFE|DEFG A2 dc|
BcBA F2 EB,|DEFA AF ed|BAFD EAFE|D2B,2 B,3:|
|:E2|FBBF B2 de|fBBc BAFE|FBBd fBde|fB (3cBA B3 F|
AFFE F2 B,C|DEFA AF ed|BAFD EAFE|D2B,2 B,2:|

